X:1
T:Susannah
T:S. S. Wesley
T:Susannah
C:S. S. Wesley
%%score { ( 1 2 ) | ( 3 4 ) }
L:1/8
Q:1/4=180
M:2/2
K:Bb
V:1 treble nm="Piano" snm="Pno."
V:2 treble 
V:3 bass 
V:4 bass 
V:1
 F4 | B4 d4 | G4 e4 | d4 B4 | c4 F4 | B4 d4 | c4 (F2 G2) | A4 G4 | F4 F4 | c4 d4 | e4 c4 | %11
 (d2 B2) (A2 B2) | c4 F4 | B4 d4 | G4 e4 | d4 c4 | B4 |] %17
V:2
 F4 | F4 F4 | G4 E4 | F4 =E4 | F4 F4 | F4 F4 | F4 F4 | F4 =E4 | F4 F4 | G4 G4 | G4 F4 | F4 =E4 | %12
 F4 F4 | F4 F4 | G4 G4 | F4 (F2 E2) | D4 |] %17
V:3
 A,4 | B,4 B,4 | B,4 A,4 | B,4 B,4 | A,4 A,4 | B,4 B,4 | C4 D4 | C4 B,4 | A,4 _A,4 | G,4 =B,4 | %10
 C4 C4 | B,4 B,4 | A,4 B,4 | B,4 B,4 | B,4 B,4 | B,4 A,4 | B,4 |] %17
V:4
 F,4 | D,4 B,,4 | E,4 C,4 | D,4 G,4 | F,4 F,4 | D,4 B,,4 | A,,4 B,,4 | C,4 C,4 | F,,4 F,4 | %9
 E,4 G,4 | C4 A,4 | B,4 G,4 | F,4 (F,2 E,2) | D,4 B,,4 | E,4 C,4 | F,4 F,4 | B,,4 |] %17

